X:218
T: Mailust und Abschied
N: A0264
O: Europa, Mitteleuropa, Deutschland
N: Forster III 1549 No. 18.
R: Romanze, Ballade, Lied
M: 3/2
L: 1/4
K: A
e2e2e2 | e2d2e2 | =g3=fed | e2=c2z2 |
e2e2e2 | e4d2 | =c3Bcd | e4z2 |
e2e2e2 | e2d2e2 | =g3fed | e2=c2z2 |
e2e2e2 | e4d2 | =c3Bcd | e4z2 |
e2e3d | =c4BA | =G4z2 |
g2g2g2 | a2=f2=g2 | e4d=c | B2A2
e2 | e4=c2 | d3=cBA | B4B2 | A6

@@@ Tune index: 218
